X:0768
M:2/4
L:1/8
Q:1/4=128
K:G
e|  d2    Bd  |BA/G/ Bd|  Bd   (c/B/A/)G/|cA`Ae |  d2    Bd  |BA/G/ Bd|Bdce|dGG:|
d|  g2    dB  |g2 dB   |  g2    dB       |cA`Af |  g2    dB  |g2    dB|Bdce|dGG:|

